assets/svg/cem.svg

<svg width="200" height="100" viewBox="0 0 200 100" fill="none" xmlns="http://www.w3.org/2000/svg">
<path d="M49.5 9.53345V10.9001L43.8667 12.2334L43.1 12.4001L43.2667 13.1668L46.0333 24.9334L33.6667 27.8334L32.9 28.0001L33.1 28.7668L36.2 42.0668L36.4 42.8335L37.1333 42.6668L49.5 39.7668V51.1668H29.0667V9.53345H49.5Z" fill="#284CCB"/>
<path d="M58 9.69995L60.9333 22.2666L74.0333 19.2L77.1333 32.5L64.0333 35.5666L66.9667 48.1L53.0667 51.3333L50.1333 38.8L37.0333 41.8666L33.9333 28.5666L47.0333 25.5L44.1 12.9666L58 9.69995Z" fill="#C126CE"/>
<path d="M90.6001 49.7334C89.4667 49.4667 88.4334 49.1001 87.4334 48.6001C86.4334 48.1001 85.5334 47.5001 84.7001 46.7334C83.8668 45.9667 83.1667 45.1334 82.5667 44.1667C81.9667 43.2001 81.5001 42.1334 81.1667 40.9001C80.8334 39.6667 80.6667 38.3334 80.6667 36.9334C80.6667 35.7001 80.8001 34.5334 81.0667 33.4001C81.3334 32.2667 81.7334 31.2001 82.2334 30.2334C82.7334 29.2334 83.3667 28.3334 84.1667 27.5334C84.9667 26.7334 85.8334 26.0334 86.8001 25.4667C87.7667 24.9001 88.8667 24.4334 90.1334 24.1334C91.4001 23.8334 92.7001 23.6667 94.1001 23.6667C95.9667 23.6667 97.8334 24.0667 99.7334 24.9001C101.6 25.7334 103.233 26.9667 104.6 28.6334L99.5668 32.9667C99.2668 32.6334 98.9334 32.3334 98.5668 32.0334C98.2001 31.7334 97.8001 31.4667 97.3334 31.2001C96.8667 30.9334 96.3667 30.7001 95.8001 30.5667C95.2334 30.4334 94.6667 30.3334 94.1001 30.3334C93.4667 30.3334 92.8334 30.4334 92.2334 30.6001C91.6334 30.7667 91.0667 31.0334 90.5334 31.4334C90.0001 31.8001 89.5334 32.2667 89.1667 32.7667C88.8001 33.2667 88.4668 33.9001 88.2334 34.6334C88.0001 35.3667 87.9001 36.1334 87.9001 37.0001C87.9001 37.8667 88.0334 38.7001 88.3334 39.5001C88.6334 40.3001 89.0001 41.0001 89.5334 41.6001C90.0667 42.2001 90.7001 42.6667 91.5001 43.0334C92.3001 43.4001 93.1667 43.5667 94.1001 43.5667C95.1001 43.5667 96.1001 43.3334 97.1001 42.8334C98.1001 42.3667 98.9001 41.7334 99.5668 40.9334L104.6 45.2668C103.4 46.7334 101.9 47.9001 100.1 48.8334C98.3001 49.7667 96.3001 50.2001 94.1001 50.2001C92.8667 50.1334 91.7334 50.0001 90.6001 49.7334Z" fill="white"/>
<path d="M117.267 31.6001V38.5334C116.9 38.5001 116.467 38.5001 115.9 38.5001C114.7 38.5001 113.767 38.8001 113.167 39.4334C112.567 40.0668 112.234 40.9001 112.234 41.9668V49.7334H105.767V32.0001H112.234V34.4334H112.3C112.934 33.5334 113.667 32.8334 114.534 32.3668C115.4 31.9001 116.3 31.6334 117.267 31.6334V31.6001Z" fill="white"/>
<path d="M136.133 32L127 56.9333H120.7L123.7 48.4667L116.933 32H123.6L126.6 40.4H126.667L129.5 32H136.133Z" fill="white"/>
<path d="M150.3 31.9335C150.967 32.1335 151.633 32.4335 152.2 32.8002C152.767 33.1669 153.3 33.6335 153.767 34.2002C154.233 34.7669 154.633 35.3669 154.967 36.0335C155.3 36.7002 155.567 37.4669 155.733 38.3002C155.9 39.1335 156 39.9669 156 40.8669C156 42.6669 155.667 44.2669 154.967 45.7002C154.267 47.1335 153.3 48.2002 152.033 48.9669C150.767 49.7335 149.367 50.1335 147.733 50.1335C145.9 50.1335 144.433 49.5002 143.333 48.2335V56.9335H136.867V32.0002H143.367V33.8002H143.433C144.667 32.3669 146.267 31.6335 148.2 31.6335C148.9 31.6002 149.6 31.7335 150.3 31.9335ZM148.633 43.4669C149.233 42.8002 149.533 41.9335 149.533 40.8669C149.533 39.8002 149.233 38.9669 148.633 38.3002C148.033 37.6335 147.3 37.3002 146.367 37.3002C145.4 37.3002 144.633 37.6335 144 38.3002C143.367 38.9669 143.067 39.8335 143.067 40.8669C143.067 41.9335 143.367 42.8002 144 43.4669C144.6 44.1335 145.4 44.4335 146.367 44.4335C147.267 44.4669 148.033 44.1335 148.633 43.4669Z" fill="white"/>
<path d="M161.367 49.7667C160.733 49.5334 160.167 49.1667 159.7 48.7001C159.233 48.2334 158.833 47.6001 158.567 46.8334C158.3 46.0667 158.167 45.2001 158.167 44.2001V37.1667H156.233V32.0001H158.167V26.4001L164.633 25.7334V32.0001H168.5V37.1334H164.633V42.7667C164.633 43.0001 164.633 43.2334 164.667 43.4001C164.7 43.6001 164.733 43.7667 164.8 43.9667C164.867 44.1667 165 44.3001 165.167 44.4001C165.333 44.5001 165.533 44.5667 165.8 44.5667C166.267 44.5667 166.7 44.4667 167.1 44.2667L168.667 48.7667C167.9 49.2001 167.133 49.5334 166.367 49.7334C165.6 49.9667 164.633 50.0667 163.467 50.0667C162.7 50.1334 162 50.0001 161.367 49.7667Z" fill="white"/>
<path d="M173.067 48.9667C171.6 48.2001 170.433 47.1001 169.6 45.7001C168.767 44.3001 168.367 42.7001 168.367 40.9001C168.367 39.1001 168.767 37.5001 169.6 36.1001C170.433 34.7001 171.567 33.6001 173.067 32.8334C174.533 32.0667 176.233 31.6667 178.133 31.6667C180.033 31.6667 181.7 32.0667 183.167 32.8334C184.633 33.6001 185.8 34.7001 186.633 36.1001C187.467 37.5001 187.867 39.1001 187.867 40.9001C187.867 42.7001 187.467 44.3001 186.633 45.7001C185.8 47.1001 184.667 48.2001 183.167 48.9667C181.667 49.7334 180 50.1334 178.133 50.1334C176.233 50.1334 174.567 49.7334 173.067 48.9667ZM180.433 43.4001C181.033 42.7334 181.367 41.9001 181.367 40.8667C181.367 39.8334 181.067 38.9667 180.467 38.3334C179.867 37.6667 179.1 37.3667 178.133 37.3667C177.667 37.3667 177.233 37.4667 176.833 37.6334C176.433 37.8001 176.1 38.0667 175.8 38.3667C175.533 38.6667 175.3 39.0334 175.133 39.4667C174.967 39.9001 174.9 40.3667 174.9 40.8667C174.9 41.2667 174.967 41.6334 175.067 42.0001C175.167 42.3667 175.333 42.7001 175.5 42.9667C175.7 43.2667 175.933 43.5001 176.2 43.7001C176.467 43.9001 176.767 44.0667 177.1 44.2001C177.433 44.3001 177.767 44.3667 178.133 44.3667C179.033 44.4001 179.833 44.0667 180.433 43.4001Z" fill="white"/>
<path d="M7.6001 54.1001H25.1001V60.4001H14.4334V64.3668H22.8001V70.5001H14.4001V74.2001H25.8668V80.4668H7.6001V54.1001Z" fill="#C126CE"/>
<path d="M56.7668 69.8333V80.4667H50.1668V71.3333C50.1668 71.0333 50.1668 70.7667 50.1334 70.5334C50.1001 70.3 50.1001 70.0333 50.0334 69.8C50.0001 69.5667 49.9334 69.3333 49.8668 69.1333C49.8001 68.9333 49.7001 68.7667 49.6001 68.5667C49.5001 68.4 49.3668 68.2667 49.2001 68.1667C49.0334 68.0667 48.8668 67.9667 48.6668 67.9C48.4668 67.8333 48.2334 67.8 48.0001 67.8C47.3001 67.8 46.7001 68.1 46.2668 68.7C45.8334 69.3 45.6001 70.1667 45.6001 71.3667V80.5H38.9668V71.3333C38.9668 70.8 38.9334 70.3667 38.8668 69.9333C38.8001 69.5333 38.7001 69.1667 38.5334 68.8333C38.3668 68.5 38.1334 68.2333 37.8668 68.0667C37.6001 67.9 37.2001 67.8 36.8001 67.8C36.0334 67.8 35.4334 68.1 34.9668 68.7C34.5001 69.3 34.2668 70.1667 34.2668 71.3667V80.5H27.6001V62.3333H34.2334V64.4H34.2668C34.9001 63.6 35.6334 63 36.4668 62.5667C37.3001 62.1667 38.2001 61.9333 39.1334 61.9333C41.5334 61.9333 43.3001 62.8 44.3334 64.5H44.4001C45.8334 62.8 47.8001 61.9333 50.2668 61.9333C54.6001 61.9333 56.7668 64.5667 56.7668 69.8333Z" fill="#C126CE"/>
<path d="M76.4334 73.0001H64.5334C64.6668 73.8335 65.1001 74.5001 65.7668 74.9335C66.4334 75.3668 67.3001 75.6001 68.3001 75.6001C69.8001 75.6001 71.2001 74.9335 72.5001 73.6001L75.9334 77.3668C75.1001 78.4002 73.9668 79.2335 72.5334 79.8668C71.1001 80.5002 69.4668 80.8335 67.6001 80.8335C65.8001 80.8335 64.1668 80.4335 62.7334 79.6335C61.3001 78.8335 60.1334 77.7335 59.3334 76.2668C58.5001 74.8001 58.1001 73.1668 58.1001 71.3335C58.1001 69.5335 58.5001 67.9001 59.3001 66.4668C60.1001 65.0335 61.2334 63.9001 62.6668 63.1001C64.1001 62.3001 65.7334 61.9001 67.5334 61.9001C68.8334 61.9001 70.0334 62.1335 71.1668 62.6001C72.3001 63.0668 73.2668 63.7001 74.0668 64.5001C74.8668 65.3001 75.5001 66.3001 75.9668 67.4668C76.4334 68.6335 76.6668 69.8668 76.6668 71.2335C76.6001 71.9335 76.5334 72.5335 76.4334 73.0001ZM65.5334 67.6001C65.0001 68.0335 64.6668 68.6335 64.5334 69.4001H70.1668C70.1001 69.0335 69.9668 68.7001 69.8001 68.4001C69.6334 68.1001 69.4334 67.8335 69.2001 67.6335C68.9668 67.4335 68.7001 67.2668 68.4001 67.1668C68.1001 67.0668 67.7668 67.0001 67.4001 67.0001C66.7001 66.9668 66.0668 67.2001 65.5334 67.6001Z" fill="#C126CE"/>
<path d="M89.8334 61.9335V69.0001C89.4668 68.9668 89.0001 68.9668 88.4334 68.9668C87.2001 68.9668 86.2668 69.3001 85.6334 69.9335C85.0001 70.5668 84.6668 71.4335 84.6668 72.5335V80.4668H78.0334V62.3001H84.6668V64.7668H84.7334C85.3668 63.8335 86.1334 63.1335 87.0001 62.6335C87.8668 62.1335 88.8001 61.9001 89.8001 61.9001H89.8334V61.9335Z" fill="#C126CE"/>
<path d="M109.267 62.3V77.8333C109.267 79.1 109.167 80.2333 108.967 81.2667C108.767 82.3 108.433 83.2333 107.933 84.1C107.433 84.9667 106.833 85.7 106.067 86.3C105.3 86.9 104.367 87.3667 103.2 87.7C102.033 88.0333 100.733 88.2 99.2334 88.2C97.6667 88.2 96.3001 88.0667 95.1667 87.8333C94.0334 87.6 92.8667 87.1667 91.7001 86.5333L93.1667 81.3333C93.8334 81.7333 94.6334 82.1 95.6334 82.3667C96.6334 82.6667 97.5667 82.8 98.4001 82.8C99.8001 82.8 100.9 82.5333 101.667 81.9667C102.433 81.4 102.833 80.7 102.833 79.8667V78.2333H102.767C101.6 79.5 100 80.1333 97.9667 80.1333C96.4 80.1333 95.0001 79.7333 93.7334 78.9667C92.4667 78.2 91.5334 77.1333 90.8334 75.7667C90.1667 74.4333 89.8 72.9 89.8 71.2333C89.8 69.9 90.0001 68.6667 90.4001 67.5C90.8001 66.3333 91.3667 65.3667 92.0334 64.5334C92.7001 63.7 93.5334 63.1 94.5001 62.6333C95.4667 62.1667 96.5001 61.9333 97.5667 61.9333C99.6001 61.9333 101.267 62.6333 102.533 64.1H102.6V62.3333L109.267 62.3ZM102.033 73.3667C102.633 72.7667 102.933 72 102.933 71.0333C102.933 70.1 102.633 69.3334 102 68.7C101.367 68.1 100.633 67.8 99.7334 67.8C98.8334 67.8 98.0667 68.1 97.4334 68.7C96.8 69.3 96.5001 70.1 96.5001 71.0333C96.5001 72 96.8 72.7667 97.4334 73.3667C98.0667 73.9667 98.8001 74.2667 99.7334 74.2667C100.667 74.2667 101.4 73.9667 102.033 73.3667Z" fill="#C126CE"/>
<path d="M129.067 73.0001H117.167C117.3 73.8335 117.734 74.5001 118.4 74.9335C119.067 75.3668 119.934 75.6001 120.934 75.6001C122.434 75.6001 123.834 74.9335 125.1 73.6001L128.534 77.3668C127.7 78.4002 126.567 79.2335 125.134 79.8668C123.7 80.5002 122.067 80.8335 120.2 80.8335C118.4 80.8335 116.767 80.4335 115.334 79.6335C113.9 78.8335 112.734 77.7335 111.934 76.2668C111.1 74.8001 110.7 73.1668 110.7 71.3335C110.7 69.5335 111.1 67.9001 111.9 66.4668C112.7 65.0335 113.834 63.9001 115.267 63.1001C116.7 62.3001 118.334 61.9001 120.134 61.9001C121.434 61.9001 122.634 62.1335 123.767 62.6001C124.9 63.0668 125.867 63.7001 126.667 64.5001C127.467 65.3001 128.1 66.3001 128.567 67.4668C129.034 68.6335 129.267 69.8668 129.267 71.2335C129.234 71.9335 129.167 72.5335 129.067 73.0001ZM118.167 67.6001C117.634 68.0335 117.3 68.6335 117.167 69.4001H122.834C122.767 69.0335 122.634 68.7001 122.467 68.4001C122.3 68.1001 122.1 67.8335 121.867 67.6335C121.634 67.4335 121.367 67.2668 121.067 67.1668C120.767 67.0668 120.434 67.0001 120.067 67.0001C119.334 66.9668 118.7 67.2001 118.167 67.6001Z" fill="#C126CE"/>
<path d="M144.267 62.0667C144.8 62.1667 145.333 62.3333 145.8 62.5667C146.3 62.8 146.733 63.1 147.1 63.5C147.467 63.9 147.8 64.3667 148.067 64.9C148.333 65.4333 148.567 66.1 148.7 66.8667C148.833 67.6334 148.9 68.5 148.9 69.4667V80.4667H142.267V71.0667C142.267 70.2333 142.167 69.5667 142 69.0667C141.833 68.5667 141.567 68.2667 141.233 68.0667C140.9 67.8667 140.467 67.8 139.9 67.8C139.067 67.8 138.433 68.1 137.967 68.6667C137.5 69.2667 137.267 70.1333 137.267 71.3333V80.4667H130.667V62.3H137.3V64.3H137.333C138 63.5333 138.767 62.9334 139.667 62.5334C140.567 62.1334 141.5 61.9333 142.5 61.9333C143.133 61.9333 143.7 61.9667 144.267 62.0667Z" fill="#C126CE"/>
<path d="M154.9 79.6667C153.434 78.8667 152.3 77.7667 151.5 76.3C150.667 74.8667 150.267 73.2334 150.267 71.3667C150.267 69.5334 150.7 67.8667 151.534 66.4334C152.367 65 153.534 63.8667 155.067 63.0667C156.6 62.2667 158.3 61.8667 160.234 61.8667C161.8 61.8667 163.267 62.2 164.7 62.8334C166.1 63.4667 167.267 64.4 168.167 65.6L163.767 69.3334C162.834 68.2334 161.734 67.7 160.4 67.7C159.367 67.7 158.534 68.0334 157.9 68.7C157.267 69.3667 156.934 70.2 156.934 71.2667C156.934 72.3334 157.267 73.2 157.934 73.8667C158.6 74.5334 159.434 74.8667 160.467 74.8667C161.8 74.8667 162.9 74.3667 163.734 73.4L168.234 77.3334C167.4 78.3667 166.267 79.2 164.8 79.8334C163.334 80.4667 161.667 80.8 159.767 80.8C157.967 80.8334 156.334 80.4334 154.9 79.6667Z" fill="#C126CE"/>
<path d="M187.333 62.3L178 87.8H171.567L174.633 79.1334L167.667 62.3H174.5L177.567 70.9001H177.633L180.533 62.3H187.333Z" fill="#C126CE"/>
</svg>

<svg width="200" height="100" fill="none" xmlns="http://www.w3.org/2000/svg"><path d="M49.5 9.533V10.9l-5.633 1.333-.767.167.167.767 2.766 11.766-12.366 2.9L32.9 28l.2.767 3.1 13.3.2.767.733-.167 12.367-2.9v11.4H29.067V9.533H49.5Z" fill="#284CCB"/><path d="m58 9.7 2.933 12.567 13.1-3.067 3.1 13.3-13.1 3.067L66.967 48.1l-13.9 3.233L50.133 38.8l-13.1 3.067-3.1-13.3 13.1-3.067L44.1 12.967 58 9.7Z" fill="#C126CE"/><path d="M90.6 49.733a14.299 14.299 0 0 1-3.167-1.133c-1-.5-1.9-1.1-2.733-1.867a12.142 12.142 0 0 1-2.133-2.566 12.08 12.08 0 0 1-1.4-3.267 15.216 15.216 0 0 1-.5-3.967c0-1.233.133-2.4.4-3.533.266-1.133.666-2.2 1.166-3.167.5-1 1.134-1.9 1.934-2.7.8-.8 1.666-1.5 2.633-2.066a12.018 12.018 0 0 1 3.333-1.334c1.267-.3 2.567-.466 3.967-.466 1.867 0 3.733.4 5.633 1.233a13.17 13.17 0 0 1 4.867 3.733l-5.033 4.334a8.948 8.948 0 0 0-1-.934 8.835 8.835 0 0 0-1.234-.833c-.466-.267-.966-.5-1.533-.633-.567-.134-1.133-.234-1.7-.234-.633 0-1.267.1-1.867.267-.6.167-1.166.433-1.7.833-.533.367-1 .834-1.366 1.334a6.52 6.52 0 0 0-.934 1.866c-.233.734-.333 1.5-.333 2.367s.133 1.7.433 2.5.667 1.5 1.2 2.1a5.773 5.773 0 0 0 1.967 1.433c.8.367 1.667.534 2.6.534 1 0 2-.234 3-.734a7 7 0 0 0 2.467-1.9l5.033 4.334c-1.2 1.466-2.7 2.633-4.5 3.566-1.8.934-3.8 1.367-6 1.367-1.233-.067-2.367-.2-3.5-.467ZM117.267 31.6v6.933c-.367-.033-.8-.033-1.367-.033-1.2 0-2.133.3-2.733.933-.6.634-.933 1.467-.933 2.534v7.766h-6.467V32h6.467v2.433h.066c.634-.9 1.367-1.6 2.234-2.066.866-.467 1.766-.734 2.733-.734V31.6Z" fill="#fff"/><path d="M136.133 32 127 56.933h-6.3l3-8.466L116.933 32h6.667l3 8.4h.067L129.5 32h6.633ZM150.3 31.933c.667.2 1.333.5 1.9.867s1.1.834 1.567 1.4a9.72 9.72 0 0 1 1.2 1.833c.333.667.6 1.434.766 2.267.167.834.267 1.667.267 2.567 0 1.8-.333 3.4-1.033 4.833-.7 1.433-1.667 2.5-2.934 3.267-1.266.767-2.666 1.166-4.3 1.166-1.833 0-3.3-.633-4.4-1.9v8.7h-6.466V32h6.5v1.8h.066c1.234-1.433 2.834-2.166 4.767-2.166.7-.034 1.4.1 2.1.3Zm-1.667 11.534c.6-.667.9-1.533.9-2.6 0-1.067-.3-1.9-.9-2.567-.6-.666-1.333-1-2.266-1-.967 0-1.734.334-2.367 1-.633.667-.933 1.534-.933 2.567 0 1.067.3 1.933.933 2.6.6.666 1.4.967 2.367.967.9.033 1.666-.3 2.266-.967ZM161.367 49.767A4.61 4.61 0 0 1 159.7 48.7c-.467-.467-.867-1.1-1.133-1.867-.267-.766-.4-1.633-.4-2.633v-7.033h-1.934V32h1.934v-5.6l6.466-.667V32h3.867v5.133h-3.867v5.634a3.417 3.417 0 0 0 .167 1.2c.067.2.2.333.367.433.166.1.366.167.633.167.467 0 .9-.1 1.3-.3l1.567 4.5c-.767.433-1.534.766-2.3.966-.767.234-1.734.334-2.9.334a4.8 4.8 0 0 1-2.1-.3Z" fill="#fff"/><path d="M173.067 48.967A8.611 8.611 0 0 1 169.6 45.7c-.833-1.4-1.233-3-1.233-4.8 0-1.8.4-3.4 1.233-4.8.833-1.4 1.967-2.5 3.467-3.267 1.466-.766 3.166-1.166 5.066-1.166s3.567.4 5.034 1.166a8.616 8.616 0 0 1 3.466 3.267c.834 1.4 1.234 3 1.234 4.8 0 1.8-.4 3.4-1.234 4.8-.833 1.4-1.966 2.5-3.466 3.267-1.5.766-3.167 1.166-5.034 1.166-1.9 0-3.566-.4-5.066-1.166Zm7.366-5.567c.6-.667.934-1.5.934-2.533 0-1.034-.3-1.9-.9-2.534-.6-.666-1.367-.966-2.334-.966-.466 0-.9.1-1.3.266-.4.167-.733.434-1.033.734-.267.3-.5.666-.667 1.1-.166.433-.233.9-.233 1.4 0 .4.067.766.167 1.133s.266.7.433.967c.2.3.433.533.7.733.267.2.567.367.9.5.333.1.667.167 1.033.167.9.033 1.7-.3 2.3-.967Z" fill="#fff"/><path d="M7.6 54.1h17.5v6.3H14.433v3.967H22.8V70.5h-8.4v3.7h11.467v6.267H7.6V54.1ZM56.767 69.833v10.634h-6.6v-9.134c0-.3 0-.566-.034-.8-.033-.233-.033-.5-.1-.733a3.903 3.903 0 0 0-.166-.667c-.067-.2-.167-.366-.267-.566-.1-.167-.233-.3-.4-.4-.167-.1-.333-.2-.533-.267s-.434-.1-.667-.1c-.7 0-1.3.3-1.733.9-.434.6-.667 1.467-.667 2.667V80.5h-6.633v-9.167a8.92 8.92 0 0 0-.1-1.4 3.848 3.848 0 0 0-.334-1.1c-.166-.333-.4-.6-.666-.766C37.6 67.9 37.2 67.8 36.8 67.8c-.767 0-1.367.3-1.833.9-.467.6-.7 1.467-.7 2.667V80.5H27.6V62.333h6.633V64.4h.034c.633-.8 1.366-1.4 2.2-1.833.833-.4 1.733-.634 2.666-.634 2.4 0 4.167.867 5.2 2.567h.067c1.433-1.7 3.4-2.567 5.867-2.567 4.333 0 6.5 2.634 6.5 7.9ZM76.433 73h-11.9c.134.834.567 1.5 1.234 1.933.666.434 1.533.667 2.533.667 1.5 0 2.9-.666 4.2-2l3.433 3.767c-.833 1.033-1.966 1.867-3.4 2.5-1.433.633-3.066.966-4.933.966-1.8 0-3.433-.4-4.867-1.2-1.433-.8-2.6-1.9-3.4-3.366-.833-1.467-1.233-3.1-1.233-4.933 0-1.8.4-3.434 1.2-4.867a8.604 8.604 0 0 1 3.367-3.367c1.433-.8 3.066-1.2 4.866-1.2 1.3 0 2.5.233 3.634.7 1.133.467 2.1 1.1 2.9 1.9.8.8 1.433 1.8 1.9 2.967.466 1.166.7 2.4.7 3.767-.067.7-.134 1.3-.234 1.766Zm-10.9-5.4c-.533.434-.866 1.034-1 1.8h5.634c-.067-.367-.2-.7-.367-1a2.788 2.788 0 0 0-.6-.767c-.233-.2-.5-.366-.8-.466-.3-.1-.633-.167-1-.167-.7-.033-1.333.2-1.867.6ZM89.833 61.934V69c-.366-.033-.833-.033-1.4-.033-1.233 0-2.166.333-2.8.966-.633.634-.966 1.5-.966 2.6v7.934h-6.634V62.3h6.634v2.467h.066A6.876 6.876 0 0 1 87 62.634c.867-.5 1.8-.734 2.8-.734h.033v.034ZM109.267 62.3v15.533c0 1.267-.1 2.4-.3 3.434a9.008 9.008 0 0 1-1.034 2.833c-.5.867-1.1 1.6-1.866 2.2-.767.6-1.7 1.067-2.867 1.4-1.167.333-2.467.5-3.967.5-1.566 0-2.933-.133-4.066-.367-1.134-.233-2.3-.666-3.467-1.3l1.467-5.2a9.47 9.47 0 0 0 2.466 1.034c1 .3 1.934.433 2.767.433 1.4 0 2.5-.267 3.267-.833.766-.567 1.166-1.267 1.166-2.1v-1.634h-.066c-1.167 1.267-2.767 1.9-4.8 1.9-1.567 0-2.967-.4-4.234-1.166-1.266-.767-2.2-1.834-2.9-3.2-.666-1.334-1.033-2.867-1.033-4.534 0-1.333.2-2.566.6-3.733a9.753 9.753 0 0 1 1.633-2.967c.667-.833 1.5-1.433 2.467-1.9.967-.466 2-.7 3.067-.7 2.033 0 3.7.7 4.966 2.167h.067v-1.767l6.667-.033Zm-7.234 11.067c.6-.6.9-1.367.9-2.334 0-.933-.3-1.7-.933-2.333-.633-.6-1.367-.9-2.267-.9-.9 0-1.666.3-2.3.9-.633.6-.933 1.4-.933 2.333 0 .967.3 1.734.933 2.334.634.6 1.367.9 2.3.9.934 0 1.667-.3 2.3-.9ZM129.067 73h-11.9c.133.834.567 1.5 1.233 1.933.667.434 1.534.667 2.534.667 1.5 0 2.9-.666 4.166-2l3.434 3.767c-.834 1.033-1.967 1.867-3.4 2.5-1.434.633-3.067.966-4.934.966-1.8 0-3.433-.4-4.866-1.2-1.434-.8-2.6-1.9-3.4-3.366-.834-1.467-1.234-3.1-1.234-4.933 0-1.8.4-3.434 1.2-4.867a8.608 8.608 0 0 1 3.367-3.367c1.433-.8 3.067-1.2 4.867-1.2 1.3 0 2.5.233 3.633.7 1.133.467 2.1 1.1 2.9 1.9.8.8 1.433 1.8 1.9 2.967.467 1.166.7 2.4.7 3.767-.033.7-.1 1.3-.2 1.766Zm-10.9-5.4c-.533.434-.867 1.034-1 1.8h5.667c-.067-.367-.2-.7-.367-1a2.8 2.8 0 0 0-.6-.767c-.233-.2-.5-.366-.8-.466a3.14 3.14 0 0 0-1-.167 2.883 2.883 0 0 0-1.9.6ZM144.267 62.067c.533.1 1.066.266 1.533.5.5.233.933.533 1.3.933s.7.867.967 1.4c.266.533.5 1.2.633 1.967.133.766.2 1.633.2 2.6v11h-6.633v-9.4c0-.834-.1-1.5-.267-2s-.433-.8-.767-1c-.333-.2-.766-.267-1.333-.267-.833 0-1.467.3-1.933.867-.467.6-.7 1.466-.7 2.666v9.134h-6.6V62.3h6.633v2h.033c.667-.767 1.434-1.367 2.334-1.767.9-.4 1.833-.6 2.833-.6.633 0 1.2.034 1.767.134ZM154.9 79.667c-1.466-.8-2.6-1.9-3.4-3.367-.833-1.433-1.233-3.067-1.233-4.933 0-1.834.433-3.5 1.267-4.934a8.608 8.608 0 0 1 3.533-3.366c1.533-.8 3.233-1.2 5.167-1.2 1.566 0 3.033.333 4.466.966a8.83 8.83 0 0 1 3.467 2.767l-4.4 3.733c-.933-1.1-2.033-1.633-3.367-1.633-1.033 0-1.866.333-2.5 1-.633.667-.966 1.5-.966 2.567 0 1.066.333 1.933 1 2.6.666.666 1.5 1 2.533 1 1.333 0 2.433-.5 3.267-1.467l4.5 3.933c-.834 1.034-1.967 1.867-3.434 2.5-1.466.634-3.133.967-5.033.967-1.8.033-3.433-.367-4.867-1.133ZM187.333 62.3 178 87.8h-6.433l3.066-8.667-6.966-16.833h6.833l3.067 8.6h.066l2.9-8.6h6.8Z" fill="#C126CE"/></svg>
